picto/luggage-registration-framed.svg

<svg class="color-immutable" width="30" height="30" viewBox="0 0 30 30" fill="none" xmlns="http://www.w3.org/2000/svg"><path d="M30 30H0V0H30V30Z" fill="#2D327D"/><path d="M25.5 3C26.325 3 27 3.675 27 4.5V25.5C27 26.325 26.325 27 25.5 27H4.5C3.675 27 3 26.325 3 25.5V4.5C3 3.675 3.675 3 4.5 3H25.5ZM25.5 2.625H4.5C3.46613 2.625 2.625 3.46613 2.625 4.5V25.5C2.625 26.5339 3.46613 27.375 4.5 27.375H25.5C26.5339 27.375 27.375 26.5339 27.375 25.5V4.5C27.375 3.46613 26.5339 2.625 25.5 2.625Z" fill="white"/><path d="M6.7305 22.575H11.2321L11.961 11.6543C11.9625 11.6321 11.9625 11.6096 11.9625 11.5861C11.9625 11.029 11.5094 10.575 10.9502 10.575H7.01348C6.45285 10.575 6 11.029 6 11.5861C6 11.6096 6.00135 11.6321 6.00135 11.6543L6.7305 22.575ZM6.7959 11.7003C6.7959 11.4929 6.96315 11.3243 7.17097 11.3243H10.7913C10.9991 11.3243 11.168 11.4929 11.168 11.7003C11.168 11.7086 11.1679 11.7171 11.1664 11.7254L10.9433 15.075H7.02053L6.7959 11.7254C6.7959 11.7171 6.7959 11.7086 6.7959 11.7003Z" fill="white"/><path d="M10.7189 12.1961L10.4568 12.0471L10.0859 12.6975L10.3454 12.8479L10.7189 12.1961Z" fill="white"/><path d="M9.95231 11.8437L9.66228 11.7672L9.47253 12.4928L9.76256 12.5693L9.95231 11.8437Z" fill="white"/><path d="M8.83142 11.7003H9.1324V12.4496H8.83142V11.7003Z" fill="white"/><path d="M8.78679 14.7003H9.17709L8.36859 11.9342C8.34354 11.8549 8.27086 11.8006 8.18739 11.8006C8.08426 11.8006 8.00049 11.884 8.00049 11.9871C8.00049 12.0052 8.00334 12.0233 8.00746 12.0401L8.78679 14.7003Z" fill="white"/><path d="M7.87227 12.7016L7.49877 12.0512L7.23792 12.2003L7.61142 12.8507L7.87227 12.7016Z" fill="white"/><path d="M22.8755 15.0751H20.25V14.3246C20.25 13.869 19.8809 13.5 19.425 13.5H17.3252C16.8694 13.5 16.5001 13.8689 16.5001 14.3246V15.0751H13.8747C13.2531 15.0751 12.75 15.5779 12.75 16.1992V21.4497C12.75 22.0708 13.2531 22.575 13.8747 22.575H22.8755C23.4957 22.575 24 22.0708 24 21.4497V16.1992C24 15.5779 23.4956 15.0751 22.8755 15.0751ZM18.1877 19.3495C18.1877 19.5167 18.0525 19.6502 17.8879 19.6502H15.8619C15.6974 19.6502 15.5622 19.5167 15.5622 19.3495V16.7521C15.5622 16.6726 15.5943 16.5961 15.65 16.5402L16.3105 15.88C16.3467 15.8455 16.3942 15.8258 16.4431 15.8258H16.6868V16.1993H17.0632V15.8258H17.3069C17.3557 15.8258 17.4045 15.8455 17.4395 15.88L18.0999 16.5402C18.1558 16.5961 18.1878 16.6726 18.1878 16.7521V19.3495H18.1877ZM19.5742 15.0751H17.1746V14.1742H19.5742V15.0751Z" fill="white"/><path d="M6 23.325H23.9893V24H6V23.325Z" fill="white"/></svg>

<svg class="color-immutable" width="30" height="30" viewBox="0 0 30 30" fill="none" xmlns="http://www.w3.org/2000/svg"><g clip-path="url(#a)"><path d="M30 30H0V0h30v30Z" fill="#2D327D"/><path d="M25.5 3c.825 0 1.5.675 1.5 1.5v21c0 .825-.675 1.5-1.5 1.5h-21c-.825 0-1.5-.675-1.5-1.5v-21C3 3.675 3.675 3 4.5 3h21Zm0-.375h-21A1.877 1.877 0 0 0 2.625 4.5v21c0 1.034.841 1.875 1.875 1.875h21a1.877 1.877 0 0 0 1.875-1.875v-21A1.877 1.877 0 0 0 25.5 2.625Z" fill="#fff"/><path d="M6.73 22.575h4.502l.729-10.92c.002-.023.002-.045.002-.069 0-.557-.454-1.011-1.013-1.011H7.013c-.56 0-1.013.454-1.013 1.011l.001.068.73 10.921ZM6.796 11.7c0-.207.167-.376.375-.376h3.62a.377.377 0 0 1 .375.401l-.223 3.35H7.021l-.225-3.35V11.7Z" fill="#fff"/><path d="m10.719 12.196-.262-.149-.371.65.26.15.373-.65ZM9.952 11.844l-.29-.077-.19.726.29.076.19-.725ZM8.831 11.7h.301v.75h-.3v-.75ZM8.787 14.7h.39l-.808-2.766a.19.19 0 0 0-.182-.133.187.187 0 0 0-.18.24l.78 2.66ZM7.872 12.702l-.373-.65-.261.148.373.65.261-.148ZM22.875 15.075H20.25v-.75a.825.825 0 0 0-.825-.825h-2.1a.825.825 0 0 0-.825.825v.75h-2.625c-.622 0-1.125.503-1.125 1.124v5.25c0 .622.503 1.126 1.125 1.126h9c.62 0 1.125-.504 1.125-1.125V16.2c0-.622-.504-1.125-1.125-1.125Zm-4.687 4.274a.3.3 0 0 1-.3.301h-2.026a.3.3 0 0 1-.3-.3v-2.598c0-.08.032-.156.088-.212l.66-.66a.193.193 0 0 1 .133-.054h.244v.373h.376v-.373h.244c.049 0 .098.02.133.054l.66.66a.3.3 0 0 1 .088.212v2.598Zm1.386-4.274h-2.4v-.9h2.4v.9ZM6 23.325h17.99V24H6v-.675Z" fill="#fff"/></g><defs><clipPath id="a"><path fill="#fff" d="M0 0h30v30H0z"/></clipPath></defs></svg>
